!!!OTL: Drei Lilien (116), S. 273
!!!id: T0280
**kern
*clefG2
*k[f#c#]
*D:
{8d
8f#
=1
4.a
8b
4a
4g
=2
4.f#
8e
4d}
=3
{4a
=4
4b
4a
4g
4f#
=5
4e}
2r
=6
{8d
8f#
=7
4a
4a
4a
4dd
=8
4.b
8g
4g}
=9
{4ee
=10
2dd
2cc#
=11
2dd}
4r
=12
{8a
8g
=13
8f#
8f#
8f#
8f#
8g
8f#
4e
=14
8b
8b
4a
4a
4g
=15
4f#}
2r
=16
{8d
8f#
=17
4a
4a
4a
4dd
=18
4.b
8g
4g}
=19
{4ee
=20
2dd
2cc#
=21
2dd}
4r
==
*-
!!!minrhy: 8
!!!meters: 4/4 ]  ZZ[7
!!!cut: Drei Lilien (116), S. 273
!!!reg: Luxemburg
!!!trd: Singendes Volk, Esch-Alzette 1937 posth.
!!!rhy1: XX  X_.XX_X_  X_.XX_
!!!rhy2: X_  X_X_X_X_  X_0__
!!!key: T0280  08  D 4/4 ]  ZZ[7
!!!mod: HEPTATONIK IONISCH]  AMBITUS[9
!!!kad: 124+134+1
!!!akz: 5531_642_5564_+17+1_34653_5564_+17+1_
!!!fot: 'a__b__c__d__e__c__d__
!!!for: 'a__b__bw_c__d__bw_c__
!!!fok: '^__\__^a_\__\__^a_\__
!! PHRAS[AUFTAKTIG]
!!!fkt: Liebeslieder
!!!bem: Savelborn, fff Leny Goerens, 6.2.1916
!! THILL, Mathias:
!! PR[13] 2K[0] 2G[7] 3K[7] 3G[7] 4A[7] 4Ü[0] 5A[7] 6K[0] 6G[0]
!! 7K[0] 7G[0] 8A[0] MEHR[0] SI[33] ABS[15] SR[7] SP[27]
!! ST[6] 2k[13] 2g[33] 3k[0] 3g[0] 4d[7] 4ü[0] 5d[0] 6k[0] 6g[0]
!! 7k[0] 7g[0] 8d[0] mehr[0] si[53] dm[-20] sr[47] sp[7]
!! 1F[59] 2F[41] 3F[0] 4F[0] LF[0] 2P[0] 3P[0] 4P[0] TRI[0] DF[2] AB[17]
!! TF[0] U3K[0] U3[0] U4[0] U4Ü[0] U5[6] U6K[0] U6[0] U7K[0] U7[0]
!! N1[25] N2K[0] N2[6] N3K[0] N3[19] N4[13] N4Ü[0] N5[25] N6K[0] N6[6]
!!!n7k: 0] N7[0] O1[0] O2K[0] O2[0] O3K[0] O3[0] HÖ[0
